archdroid-icon-theme/Archdroid-Brown/status/scalable/glippy-panel.svg

<svg fill="#795548" height="48" viewBox="0 0 48 48" width="48" xmlns="http://www.w3.org/2000/svg"><g fill="#795548"><path d="m24 0c-2.61 0-4.810859 1.68-5.630859 4h-8.369141c-2.21 0-4 1.79-4 4v32c0 2.21 1.79 4 4 4h28c2.21 0 4-1.79 4-4v-32c0-2.21-1.79-4-4-4h-8.369141c-.82-2.32-3.020859-4-5.630859-4zm0 4c1.1 0 2 .89 2 2s-.9 2-2 2-2-.89-2-2 .9-2 2-2zm-14 4h4v6h20v-6h4v32h-28z"/><text style="font-family:Roboto;font-size:20;font-weight:bold;letter-spacing:0;text-anchor:middle;word-spacing:0" x="24.091553" y="35.743652"><tspan font-family="Roboto" font-size="25" font-weight="bold" text-anchor="middle" x="24.091553" y="35.743652">G</tspan></text></g></svg>

<svg fill="#795548" height="48" version="1.1" viewBox="0 0 48 48" width="48" xmlns="http://www.w3.org/2000/svg"><path d="M24 0C21.39 0 19.189141 1.68 18.369141 4L10 4C7.79 4 6 5.79 6 8L6 40C6 42.21 7.79 44 10 44L38 44C40.21 44 42 42.21 42 40L42 8C42 5.79 40.21 4 38 4L29.630859 4C28.810859 1.68 26.61 0 24 0zM24 4C25.1 4 26 4.89 26 6 26 7.11 25.1 8 24 8 22.9 8 22 7.11 22 6 22 4.89 22.9 4 24 4zM10 8L14 8 14 14 34 14 34 8 38 8 38 40 10 40 10 8z"/><text fill="#795548" font-family="Roboto" font-size="20" font-weight="bold" letter-spacing="0" line-height="125%" text-anchor="middle" word-spacing="0" x="24.091553" xml:space="preserve" y="35.743652"><tspan font-family="Roboto" font-size="25" font-weight="bold" line-height="125%" text-anchor="middle" x="24.091553" y="35.743652">G</tspan></text></svg>
